src/_static/fonts/TheNestIcons/src/shell.svg

<svg xmlns="http://www.w3.org/2000/svg" xml:space="preserve" viewBox="0 0 512 512">
    <defs />
    <path fill="#00000000" d="M.3 1.3h512v512H.3z"/>
    <path fill="#00000000"
        d="M449.1,105.9L287.5,9.9C268.2,-1.6,244.4,-1.6,225.1,9.9L63.5,105.9C44.2,117.3,32.3,138.5,32.3,161.4V353.3C32.3,376.2,44.2,397.4,63.5,408.8L225.1,504.7C234.7,510.4,245.5,513.3,256.3,513.3S277.8,510.4,287.5,504.7L449.1,408.8C468.4,397.3,480.3,376.2,480.3,353.3V161.4C480.3,138.5,468.4,117.3,449.1,105.9Z"
        class="st1" />
    <path fill="#fff"
        d="M449.1,105.9L287.5,9.9C277.9,4.205,267.1,1.3,256.3,1.3S234.8,4.2,225.1,9.9L63.5,105.9C44.2,117.3,32.36,138.5,32.36,161.4V353.3C32.36,376.2,44.2,397.4,63.5,408.8L225.1,504.7C234.7,510.4,245.5,513.3,256.3,513.3S277.8,510.4,287.5,504.7L449.1,408.8C468.4,397.3,480.3,376.2,480.3,353.3V161.4C480.3,138.5,468.4,117.3,449.1,105.9ZM230.8,494.9L69.2,399C53.4,389.6,43.6,372.1,43.6,353.3V161.4C43.6,142.6,53.4,125.1,69.2,115.7L230.8,19.799999999999997C238.6,15.199999999999998,247.4,12.799999999999997,256.3,12.799999999999997S274.1,15.199999999999998,281.8,19.799999999999997L443.4,115.7C456.7,123.6,465.7,137.3,468.2,152.7C462.8,141.29999999999998,450.8,138.1,436.7,146.39999999999998L283.8,240.89999999999998C264.69999999999993,251.99999999999997,250.69999999999996,264.6,250.69999999999996,287.5V475.9C250.69999999999996,489.7,256.19999999999993,498.6,264.8,501.2C261.99999999999994,501.7,259.19999999999993,502,256.3,502C247.39999999999995,501.9,238.49999999999994,499.5,230.8,494.9Z" />
    <path fill="#4da825"
        d="M406.8,371.8L366.5,395.9C365.4,396.5,364.6,397.2,364.6,398.5V409C364.6,410.3,365.5,410.8,366.5,410.2L407.4,385.4C408.5,384.8,408.6,383.6,408.6,382.3V373C408.7,371.7,407.8,371.2,406.8,371.8Z" />
    <path fill="#232c34" d="M321.1 283.2c1.3-.7 2.4.2 2.4 1.9l.1 13.9c5.8-2.3 10.9-2.9 15.5-1.9 1 .3 1.4 1.6 1 3.2l-3.1 12.3c-.2.9-.8 1.9-1.4 2.5-.3.3-.5.5-.8.6-.4.2-.8.3-1.2.2-2.1-.5-7.1-1.6-14.9 2.4-8.2 4.2-11.1 11.3-11 16.6.1 6.3 3.3 8.3 14.5 8.4 14.9.2 21.4 6.8 21.5 21.8.2 14.8-7.7 30.6-19.8 40.4l.3 13.8c0 1.7-1.1 3.6-2.4 4.2l-8.2 4.7c-1.3.7-2.4-.1-2.4-1.8l-.1-13.6c-7 2.9-14.1 3.6-18.6 1.8-.9-.3-1.2-1.6-.9-3l3-12.5c.2-1 .8-2 1.5-2.6.3-.2.5-.4.8-.6.5-.2.9-.3 1.3-.1 4.9 1.6 11.1.9 17.1-2.2 7.6-3.9 12.7-11.6 12.6-19.4-.1-7-3.9-9.9-13.1-10-11.7 0-22.7-2.3-22.9-19.6-.1-14.2 7.3-29 19-38.4l-.1-13.9c0-1.7 1-3.6 2.4-4.3l7.9-4.8z" class="st1"/>
</svg>

<svg xmlns="http://www.w3.org/2000/svg" xml:space="preserve" viewBox="0 0 512 512">
    <path fill="transparent" d="M.3 1.3h512v512H.3z"/>
    <path fill="transparent" d="m449.1 105.9-161.6-96c-19.3-11.5-43.1-11.5-62.4 0l-161.6 96c-19.3 11.4-31.2 32.6-31.2 55.5v191.9c0 22.9 11.9 44.1 31.2 55.5l161.6 95.9c9.6 5.7 20.4 8.6 31.2 8.6s21.5-2.9 31.2-8.6l161.6-95.9c19.3-11.5 31.2-32.6 31.2-55.5V161.4c0-22.9-11.9-44.1-31.2-55.5z" class="st1"/>
    <path fill="#fff" d="m449.1 105.9-161.6-96c-9.6-5.7-20.4-8.6-31.2-8.6s-21.5 2.9-31.2 8.6l-161.6 96c-19.3 11.4-31.2 32.6-31.2 55.5v191.9c0 22.9 11.9 44.1 31.2 55.5l161.6 95.9c9.6 5.7 20.4 8.6 31.2 8.6s21.5-2.9 31.2-8.6l161.6-95.9c19.3-11.5 31.2-32.6 31.2-55.5V161.4c0-22.9-11.9-44.1-31.2-55.5zm-218.3 389L69.2 399c-15.8-9.4-25.6-26.9-25.6-45.7V161.4c0-18.8 9.8-36.3 25.6-45.7l161.6-95.9c7.8-4.6 16.6-7 25.5-7s17.8 2.4 25.5 7l161.6 95.9c13.3 7.9 22.3 21.6 24.8 37-5.4-11.4-17.4-14.6-31.5-6.3l-152.9 94.5c-19.1 11.1-33.1 23.7-33.1 46.6v188.4c0 13.8 5.5 22.7 14.1 25.3-2.8.5-5.6.8-8.5.8-8.9-.1-17.8-2.5-25.5-7.1z"/>
    <path fill="#4da825" d="m406.8 371.8-40.3 24.1c-1.1.6-1.9 1.3-1.9 2.6V409c0 1.3.9 1.8 1.9 1.2l40.9-24.8c1.1-.6 1.2-1.8 1.2-3.1V373c.1-1.3-.8-1.8-1.8-1.2z"/>
    <path fill="#232c34" d="M321.1 283.2c1.3-.7 2.4.2 2.4 1.9l.1 13.9c5.8-2.3 10.9-2.9 15.5-1.9 1 .3 1.4 1.6 1 3.2l-3.1 12.3c-.2.9-.8 1.9-1.4 2.5-.3.3-.5.5-.8.6-.4.2-.8.3-1.2.2-2.1-.5-7.1-1.6-14.9 2.4-8.2 4.2-11.1 11.3-11 16.6.1 6.3 3.3 8.3 14.5 8.4 14.9.2 21.4 6.8 21.5 21.8.2 14.8-7.7 30.6-19.8 40.4l.3 13.8c0 1.7-1.1 3.6-2.4 4.2l-8.2 4.7c-1.3.7-2.4-.1-2.4-1.8l-.1-13.6c-7 2.9-14.1 3.6-18.6 1.8-.9-.3-1.2-1.6-.9-3l3-12.5c.2-1 .8-2 1.5-2.6.3-.2.5-.4.8-.6.5-.2.9-.3 1.3-.1 4.9 1.6 11.1.9 17.1-2.2 7.6-3.9 12.7-11.6 12.6-19.4-.1-7-3.9-9.9-13.1-10-11.7 0-22.7-2.3-22.9-19.6-.1-14.2 7.3-29 19-38.4l-.1-13.9c0-1.7 1-3.6 2.4-4.3l7.9-4.8z" class="st1"/>
</svg>
